X:1
T:I'm a Rover, Seldom Sober
M:9/8
L:1/4
K:G
 z2 z G G/2| G3/2 D D/2 E E/2| E3/2 D3/2 G G/2| G3/2 B B/2 B B/2| A3/2 z d/2 d c/2|\
 B3/2 d d/2 A F/2| G3/2 D3/2 G A/2| B3/2 B B/2 A A/2| G3/2 z3|
